X:1
T:Title
%%score { 1 | ( 2 3 ) }
L:1/8
M:4/4
K:Bb
V:1 treble nm="Grand Piano"
V:2 bass 
V:3 bass 
V:1
 z4 z2[Q:1/4=100] [DF][DB] | [Fd]3 [Ec] [DB]2 [FA]2 | [FA]2 G4 GG | E3 F A2 G2 |[M:3/4] [DF]6 | %5
[M:1/4] [DF][DB] |[M:4/4] [Fd]3 c B2 _A2 | _A2 G4 GG | F2 B2 AB [Ec]2 |[M:3/4] [DB]6 | %10
[M:1/4] [DF][DB] |[M:4/4] c3 c d2 e2 | e2 d2 z2 de | f3 d B2 [=Ed]2 |[M:3/4] [Fc]6 | %15
[M:1/4] [DF][DB] |[M:4/4] [Fd]3 [Ec] [DB]2 [FA]2 | [Ac]2 [GB]2 [FA]2 G2 | F2 B2 AB [Ec]2 | %19
[M:3/4] [DB]6 |] %20
V:2
 z4 z2 [B,,B,][B,,B,] | [B,,B,]3 [B,,B,] [B,,B,]2 [D,B,]2 | [E,B,]2 [E,B,E]4 [E,B,E][E,B,E] | %3
 [F,C]3 [F,D] [F,F]2 [F,A,E]2 |[M:3/4] [B,,B,]6 |[M:1/4] [B,,B,][B,,B,] | %6
[M:4/4] [B,,B,]3 [F,A,E] [G,D]2 [F,B,D]2 | [F,B,D]2 [E,B,E]4 [E,B,E][E,B,E] | %8
 [F,B,D]2 [F,D]2 CD [F,,F,]2 |[M:3/4] [B,,F,]6 |[M:1/4] [B,,B,][B,,B,] | %11
[M:4/4][K:treble] [F,A,F]3 [F,A,F] [B,F]2 [A,CF]2 | [A,CF]2 [B,F]2 z2 [B,F][CF] | %13
 [B,DF]3 [B,F] [G,B,D]2[K:bass] [C,B,]2 |[M:3/4] [F,A,]6 |[M:1/4] [B,,B,][B,,B,] | %16
[M:4/4] [B,,B,]3 [B,,B,] [B,,B,]2 [D,B,]2 | [E,B,]2 [E,B,]2 [E,B,]2 [E,B,E]2 | %18
 [F,B,D]2 [F,D]2 CD [F,,F,]2 |[M:3/4] [B,,F,]6 |] %20
V:3
 x8 | x8 | x8 | x8 |[M:3/4] x6 |[M:1/4] x2 |[M:4/4] x8 | x8 | z4 F,2 z2 |[M:3/4] x6 |[M:1/4] x2 | %11
[M:4/4][K:treble] x8 | x8 | x6[K:bass] x2 |[M:3/4] x6 |[M:1/4] x2 |[M:4/4] x8 | x8 | z4 F,2 z2 | %19
[M:3/4] x6 |] %20

